ZUCCAL
CUT["Der Eifersuechtige"
    GANG MIR NIT UEBER MI MAETTELI]
REG[Europa, Mitteleuropa, Schweiz; Elsass]
KEY[Z1214  16  A 3/8]
MEL[3_5_4_  2_3_4#_  5_.65_
    3_5_4_  2_3_4_  3__0_
    3_5_3_  2_4_2_  1_.21_
    3_5_3_  2_4_2_  1__0_ //] >>
FCT[Liebes - Lied]
